icons/default/Thunder.svg

<path
	d="M203.421 190.438H73.5773C59.6962 190.35 46.3375 185.134 36.0697 175.792C25.8018 166.451 19.3495 153.643 17.9534 139.832C16.5573 126.021 20.3158 112.182 28.5064 100.974C36.697 89.7669 48.7415 81.9828 62.3242 79.1186C66.0612 61.6894 75.6621 46.0688 89.5248 34.8632C103.388 23.6577 120.674 17.5449 138.499 17.5449C156.325 17.5449 173.611 23.6577 187.474 34.8632C201.336 46.0688 210.937 61.6894 214.674 79.1186C228.257 81.9828 240.301 89.7669 248.492 100.974C256.683 112.182 260.441 126.021 259.045 139.832C257.649 153.643 251.197 166.451 240.929 175.792C230.661 185.134 217.302 190.35 203.421 190.438Z"
	fill="black" />
<path
	d="M179.024 97.315H152.091L176.31 66.5955C176.811 65.945 176.359 65 175.539 65H128.655C128.312 65 127.982 65.1841 127.811 65.4909L96.1347 120.413C95.7558 121.063 96.2203 121.886 96.9783 121.886H118.3L107.37 165.774C107.138 166.732 108.287 167.407 108.996 166.719L179.696 98.9964C180.332 98.3951 179.904 97.315 179.024 97.315Z"
	fill="white" />
<path
	d="M121.189 259.688C119.831 259.704 118.491 259.376 117.294 258.735C115.255 257.698 113.71 255.895 112.996 253.722C112.283 251.548 112.459 249.18 113.485 247.136L130.798 212.511C131.255 211.412 131.935 210.42 132.793 209.595C133.652 208.771 134.671 208.132 135.788 207.719C136.904 207.307 138.094 207.129 139.282 207.197C140.471 207.264 141.632 207.577 142.695 208.114C143.757 208.651 144.697 209.401 145.456 210.318C146.215 211.235 146.777 212.299 147.107 213.442C147.436 214.586 147.526 215.786 147.371 216.966C147.216 218.146 146.82 219.282 146.206 220.302L128.893 254.927C128.174 256.354 127.073 257.555 125.714 258.395C124.354 259.235 122.788 259.683 121.189 259.688V259.688Z"
	fill="black" />
<path
	d="M173.127 259.688C171.769 259.704 170.429 259.376 169.231 258.735C167.193 257.698 165.648 255.895 164.934 253.722C164.22 251.548 164.396 249.18 165.423 247.136L182.735 212.511C183.193 211.412 183.872 210.42 184.731 209.595C185.589 208.771 186.609 208.132 187.725 207.719C188.842 207.307 190.031 207.129 191.22 207.197C192.408 207.264 193.57 207.577 194.632 208.114C195.694 208.651 196.635 209.401 197.394 210.318C198.153 211.235 198.715 212.299 199.044 213.442C199.374 214.586 199.464 215.786 199.309 216.966C199.154 218.146 198.757 219.282 198.143 220.302L180.831 254.927C180.112 256.354 179.011 257.555 177.651 258.395C176.291 259.235 174.725 259.683 173.127 259.688V259.688Z"
	fill="black" />
<path
	d="M69.2518 259.688C67.8938 259.704 66.5538 259.376 65.3565 258.735C63.3177 257.698 61.7727 255.895 61.059 253.722C60.3453 251.548 60.521 249.18 61.5477 247.136L78.8602 212.511C79.3178 211.412 79.9972 210.42 80.8558 209.595C81.7143 208.771 82.7338 208.132 83.8503 207.719C84.9668 207.307 86.1564 207.129 87.3449 207.197C88.5333 207.264 89.6949 207.577 90.7572 208.114C91.8195 208.651 92.7596 209.401 93.5187 210.318C94.2779 211.235 94.8398 212.299 95.1693 213.442C95.4988 214.586 95.5889 215.786 95.4339 216.966C95.2789 218.146 94.8821 219.282 94.2684 220.302L76.9559 254.927C76.2365 256.354 75.136 257.555 73.7761 258.395C72.4163 259.235 70.8503 259.683 69.2518 259.688V259.688Z"
	fill="black" />

<path d="M203.421 190.438H73.577a56.264 56.264 0 0 1-55.624-50.606 56.266 56.266 0 0 1 44.371-60.713 77.907 77.907 0 0 1 152.35 0 56.267 56.267 0 0 1 44.371 60.713 56.263 56.263 0 0 1-55.624 50.606Z"/><path d="M179.024 97.315h-26.933l24.219-30.72c.501-.65.049-1.595-.771-1.595h-46.884a.97.97 0 0 0-.844.49l-31.676 54.923a.979.979 0 0 0 .843 1.473H118.3l-10.93 43.888c-.232.958.917 1.633 1.626.945l70.7-67.723c.636-.6.208-1.681-.672-1.681Z" fill="#fff"/><path d="M121.189 259.688a8.05 8.05 0 0 1-3.895-.953 8.655 8.655 0 0 1-3.809-11.599l17.313-34.625a8.659 8.659 0 0 1 8.484-5.314 8.647 8.647 0 0 1 6.174 3.121 8.674 8.674 0 0 1 1.651 3.124 8.668 8.668 0 0 1-.901 6.86l-17.313 34.625a8.658 8.658 0 0 1-7.704 4.761Z"/><path d="M173.127 259.688a8.057 8.057 0 0 1-3.896-.953 8.657 8.657 0 0 1-3.808-11.599l17.312-34.625a8.661 8.661 0 0 1 8.485-5.314 8.655 8.655 0 0 1 6.923 13.105l-17.312 34.625a8.654 8.654 0 0 1-7.704 4.761Z"/><path d="M69.252 259.688a8.052 8.052 0 0 1-3.895-.953 8.654 8.654 0 0 1-3.81-11.599l17.313-34.625a8.66 8.66 0 0 1 8.485-5.314 8.643 8.643 0 0 1 6.174 3.121 8.662 8.662 0 0 1 1.915 6.648 8.66 8.66 0 0 1-1.166 3.336l-17.312 34.625a8.657 8.657 0 0 1-7.704 4.761Z"/>
